dist/images/svg/strong.svg

<svg width="50" height="50" viewBox="0 0 50 50" fill="none" xmlns="http://www.w3.org/2000/svg"><mask id="path-1-inside-1_16_96" fill="white"><path d="M5.41018 44.1394C6.76737 44.466 8.0315 44.488 8.47823 44.4863L37.7736 48.0674C37.8396 48.0742 37.9056 48.0793 37.9699 48.0793C37.9699 48.0793 44.7493 48.1135 48.1203 43.1059C49.5384 41.0022 50.4116 37.9935 49.8041 33.6613C49.2561 29.7606 45.6326 24.1895 39.2292 23.5109C36.3405 23.2047 33.5112 24.1219 31.1674 25.3809C29.1571 26.4622 27.5139 27.7822 26.5324 28.6554C24.9892 27.904 22.307 26.7533 20.349 26.7533C18.0697 26.7533 16.1981 27.1713 14.7427 27.6926C14.7427 26.7533 14.7116 26 14.5075 25.0492C14.032 22.8342 13.2349 17.9959 12.8491 15.6098C13.2773 15.3881 13.7544 15.1038 14.2334 14.7501C15.7919 13.5908 17.2744 11.7343 17.1898 9.05544C17.0815 5.57941 14.5142 1.92075 10.0096 1.92075C7.64055 1.92075 6.12766 2.71271 5.14278 3.59778C3.50975 5.06328 3.26776 6.91122 3.26776 6.91122C3.26438 6.9383 3.26269 6.96199 3.25761 6.98906L0.00846132 37.5328C0.00169226 37.6039 0 37.6766 0 37.7494C0 37.7494 0.047397 40.4638 1.86995 42.2999C2.81593 43.2527 4.1376 43.8331 5.41018 44.1394Z"/></mask><path d="M5.41018 44.1394C6.76737 44.466 8.0315 44.488 8.47823 44.4863L37.7736 48.0674C37.8396 48.0742 37.9056 48.0793 37.9699 48.0793C37.9699 48.0793 44.7493 48.1135 48.1203 43.1059C49.5384 41.0022 50.4116 37.9935 49.8041 33.6613C49.2561 29.7606 45.6326 24.1895 39.2292 23.5109C36.3405 23.2047 33.5112 24.1219 31.1674 25.3809C29.1571 26.4622 27.5139 27.7822 26.5324 28.6554C24.9892 27.904 22.307 26.7533 20.349 26.7533C18.0697 26.7533 16.1981 27.1713 14.7427 27.6926C14.7427 26.7533 14.7116 26 14.5075 25.0492C14.032 22.8342 13.2349 17.9959 12.8491 15.6098C13.2773 15.3881 13.7544 15.1038 14.2334 14.7501C15.7919 13.5908 17.2744 11.7343 17.1898 9.05544C17.0815 5.57941 14.5142 1.92075 10.0096 1.92075C7.64055 1.92075 6.12766 2.71271 5.14278 3.59778C3.50975 5.06328 3.26776 6.91122 3.26776 6.91122C3.26438 6.9383 3.26269 6.96199 3.25761 6.98906L0.00846132 37.5328C0.00169226 37.6039 0 37.6766 0 37.7494C0 37.7494 0.047397 40.4638 1.86995 42.2999C2.81593 43.2527 4.1376 43.8331 5.41018 44.1394Z" fill="#FDE5D2"/><path d="M8.47823 44.4863L8.84224 41.5085L8.65524 41.4857L8.46686 41.4864L8.47823 44.4863ZM5.41018 44.1394L4.70815 47.0561L4.70827 47.0562L5.41018 44.1394ZM1.86995 42.2999L-0.259217 44.4134L-0.258904 44.4137L1.86995 42.2999ZM0 37.7494H-3V37.7756L-2.99954 37.8018L0 37.7494ZM0.00846132 37.5328L-2.97471 37.2154L-2.97646 37.2319L-2.97803 37.2483L0.00846132 37.5328ZM3.25761 6.98906L0.308994 6.43619L0.287041 6.55327L0.27444 6.67172L3.25761 6.98906ZM3.26776 6.91122L0.293158 6.52169L0.29202 6.53039L0.290933 6.53908L3.26776 6.91122ZM5.14278 3.59778L7.14648 5.83053L7.14801 5.82916L5.14278 3.59778ZM17.1898 9.05544L14.1912 9.14887L14.1913 9.15015L17.1898 9.05544ZM14.2334 14.7501L16.0156 17.1634L16.0239 17.1572L14.2334 14.7501ZM12.8491 15.6098L11.4698 12.9457L9.54085 13.9444L9.88758 16.0887L12.8491 15.6098ZM14.5075 25.0492L17.4407 24.4196L14.5075 25.0492ZM14.7427 27.6926H11.7427C11.7427 28.6686 12.2176 29.5836 13.0157 30.1456C13.8138 30.7075 14.8353 30.846 15.7542 30.5169L14.7427 27.6926ZM26.5324 28.6554L25.219 31.3527L27.0254 32.2322L28.5264 30.8968L26.5324 28.6554ZM31.1674 25.3809L29.7477 22.7381L29.7462 22.7389L31.1674 25.3809ZM39.2292 23.5109L38.9129 26.4942L38.913 26.4942L39.2292 23.5109ZM49.8041 33.6613L52.775 33.2447L52.7749 33.2439L49.8041 33.6613ZM48.1203 43.1059L45.6327 41.429L45.6316 41.4306L48.1203 43.1059ZM37.9699 48.0793L37.9851 45.0793L37.9775 45.0793H37.9699V48.0793ZM37.7736 48.0674L37.4096 51.0452L37.4386 51.0488L37.4676 51.0518L37.7736 48.0674ZM8.46686 41.4864C8.11825 41.4877 7.12924 41.4675 6.11209 41.2227L4.70827 47.0562C6.40551 47.4646 7.94474 47.4884 8.48961 47.4863L8.46686 41.4864ZM6.11221 41.2227C5.15713 40.9928 4.41754 40.6079 3.99881 40.1862L-0.258904 44.4137C1.21432 45.8974 3.11807 46.6734 4.70815 47.0561L6.11221 41.2227ZM3.99912 40.1865C3.58959 39.7739 3.31443 39.1853 3.1522 38.5706C3.0754 38.2796 3.03564 38.0263 3.01581 37.8558C3.00606 37.7719 3.00161 37.7121 2.99977 37.6828C2.99886 37.6682 2.99862 37.6615 2.9987 37.6635C2.99874 37.6645 2.99886 37.6678 2.99902 37.6733C2.9991 37.6761 2.99918 37.6794 2.99927 37.6834C2.99932 37.6853 2.99936 37.6875 2.99941 37.6897C2.99943 37.6909 2.99945 37.692 2.99947 37.6933C2.99949 37.6939 2.9995 37.6948 2.99951 37.6951C2.99953 37.6961 2.99954 37.697 0 37.7494C-2.99954 37.8018 -2.99953 37.8027 -2.99951 37.8037C-2.9995 37.8041 -2.99948 37.8051 -2.99947 37.8058C-2.99944 37.8071 -2.99942 37.8086 -2.99939 37.81C-2.99933 37.813 -2.99926 37.8161 -2.99919 37.8193C-2.99904 37.8259 -2.99886 37.8332 -2.99863 37.8412C-2.99819 37.8571 -2.99758 37.8758 -2.99675 37.8971C-2.99509 37.9398 -2.99252 37.9932 -2.98858 38.0565C-2.9807 38.1827 -2.96722 38.3494 -2.94405 38.5486C-2.89803 38.9444 -2.81203 39.4845 -2.64916 40.1017C-2.33206 41.3032 -1.67224 42.9898 -0.259217 44.4134L3.99912 40.1865ZM3 37.7494C3 37.7351 3.00019 37.7359 2.99985 37.7456C2.9995 37.7557 2.9984 37.7809 2.99495 37.8172L-2.97803 37.2483C-2.99789 37.457 -3 37.6378 -3 37.7494H3ZM2.99163 37.8501L6.24078 7.3064L0.27444 6.67172L-2.97471 37.2154L2.99163 37.8501ZM6.20622 7.54194C6.22689 7.4317 6.23791 7.34238 6.24311 7.29777C6.2444 7.28673 6.24544 7.27738 6.24609 7.27156C6.24642 7.26863 6.24671 7.26595 6.24689 7.26432C6.24711 7.26235 6.24718 7.26165 6.24726 7.26095C6.24761 7.25779 6.24647 7.26835 6.24459 7.28336L0.290933 6.53908C0.287365 6.56762 0.28474 6.5913 0.283662 6.60104C0.283383 6.60357 0.283106 6.60609 0.28297 6.60732C0.282797 6.60889 0.282739 6.60941 0.282711 6.60966C0.28265 6.61021 0.282981 6.60721 0.283529 6.60251C0.285772 6.58329 0.2934 6.51935 0.308994 6.43619L6.20622 7.54194ZM3.26776 6.91122C6.24237 7.30075 6.24222 7.30185 6.24208 7.30295C6.24203 7.30331 6.24188 7.30441 6.24179 7.30513C6.2416 7.30656 6.24141 7.30797 6.24123 7.30935C6.24086 7.31212 6.24049 7.31479 6.24014 7.31737C6.23944 7.32251 6.23877 7.32726 6.23814 7.33163C6.23689 7.34036 6.2358 7.34757 6.2349 7.35332C6.23311 7.36478 6.23207 7.37048 6.23199 7.37089C6.23187 7.37156 6.23547 7.35189 6.24441 7.31553C6.26262 7.2414 6.30046 7.10836 6.36848 6.94251C6.50666 6.60563 6.74493 6.19089 7.14648 5.83053L3.13908 1.36503C1.9076 2.47017 1.20837 3.71214 0.817288 4.66562C0.620688 5.14494 0.49596 5.56547 0.417773 5.88363C0.378504 6.04342 0.350441 6.17956 0.330706 6.28702C0.320824 6.34081 0.312989 6.38765 0.306855 6.4269C0.303786 6.44654 0.301139 6.4643 0.298872 6.48012C0.297738 6.48803 0.296698 6.49545 0.295748 6.50238C0.295273 6.50585 0.29482 6.50919 0.294388 6.51241C0.294173 6.51402 0.293962 6.5156 0.293757 6.51715C0.293655 6.51792 0.293505 6.51906 0.293454 6.51944C0.293306 6.52057 0.293158 6.52169 3.26776 6.91122ZM7.14801 5.82916C7.59253 5.42968 8.39466 4.92075 10.0096 4.92075V-1.07925C6.88645 -1.07925 4.66279 -0.00425981 3.13754 1.3664L7.14801 5.82916ZM10.0096 4.92075C12.5365 4.92075 14.1215 6.91014 14.1912 9.14887L20.1883 8.96201C20.0414 4.24869 16.4919 -1.07925 10.0096 -1.07925V4.92075ZM14.1913 9.15015C14.2342 10.5088 13.5318 11.5331 12.4429 12.343L16.0239 17.1572C18.0521 15.6486 20.3146 12.9598 20.1883 8.96073L14.1913 9.15015ZM12.4512 12.3369C12.1179 12.583 11.7789 12.7857 11.4698 12.9457L14.2285 18.2739C14.7757 17.9906 15.391 17.6246 16.0156 17.1634L12.4512 12.3369ZM9.88758 16.0887C10.2686 18.445 11.079 23.3714 11.5743 25.6789L17.4407 24.4196C16.985 22.2969 16.2013 17.5467 15.8106 15.1309L9.88758 16.0887ZM11.5743 25.6789C11.7138 26.3287 11.7427 26.8402 11.7427 27.6926H17.7427C17.7427 26.6665 17.7094 25.6713 17.4407 24.4196L11.5743 25.6789ZM15.7542 30.5169C16.9147 30.1013 18.4447 29.7533 20.349 29.7533V23.7533C17.6948 23.7533 15.4815 24.2414 13.7313 24.8682L15.7542 30.5169ZM20.349 29.7533C20.8289 29.7533 21.6152 29.9133 22.6195 30.2592C23.572 30.5871 24.5095 31.0072 25.219 31.3527L27.8457 25.9582C27.0121 25.5523 25.8369 25.0213 24.573 24.5861C23.3609 24.1687 21.8271 23.7533 20.349 23.7533V29.7533ZM28.5264 30.8968C29.4037 30.1163 30.8534 28.9563 32.5886 28.0229L29.7462 22.7389C27.4608 23.9682 25.624 25.4482 24.5383 26.414L28.5264 30.8968ZM32.5871 28.0237C34.6286 26.9271 36.8387 26.2743 38.9129 26.4942L39.5455 20.5277C35.8422 20.135 32.3938 21.3166 29.7477 22.7381L32.5871 28.0237ZM38.913 26.4942C43.6204 26.9931 46.4268 31.1854 46.8333 34.0787L52.7749 33.2439C52.0853 28.3357 47.6448 21.386 39.5453 20.5276L38.913 26.4942ZM46.8331 34.0779C47.3528 37.7833 46.5802 40.0234 45.6327 41.429L50.6079 44.7828C52.4966 41.9809 53.4704 38.2037 52.775 33.2447L46.8331 34.0779ZM45.6316 41.4306C44.4834 43.1362 42.6855 44.0815 40.9408 44.5905C40.0873 44.8395 39.3127 44.9634 38.7567 45.024C38.4811 45.0541 38.2659 45.0679 38.1297 45.0741C38.0618 45.0773 38.0142 45.0785 37.9891 45.079C37.9766 45.0792 37.9699 45.0793 37.9691 45.0793C37.9687 45.0793 37.9698 45.0793 37.9724 45.0793C37.9738 45.0793 37.9755 45.0793 37.9776 45.0793C37.9786 45.0793 37.9798 45.0793 37.981 45.0793C37.9817 45.0793 37.9827 45.0793 37.983 45.0793C37.984 45.0793 37.9851 45.0793 37.9699 48.0793C37.9548 51.0792 37.9559 51.0792 37.9571 51.0792C37.9575 51.0792 37.9586 51.0792 37.9595 51.0792C37.9611 51.0792 37.9629 51.0793 37.9648 51.0793C37.9685 51.0793 37.9727 51.0793 37.9773 51.0793C37.9865 51.0793 37.9974 51.0792 38.0099 51.0791C38.035 51.079 38.0667 51.0786 38.1047 51.0779C38.1806 51.0764 38.2819 51.0735 38.4059 51.0678C38.6537 51.0564 38.9944 51.0337 39.407 50.9887C40.2275 50.8992 41.3585 50.7188 42.6212 50.3504C45.109 49.6246 48.3861 48.0832 50.6089 44.7812L45.6316 41.4306ZM37.9699 45.0793C38.0156 45.0793 38.049 45.081 38.0656 45.0821C38.082 45.0832 38.0887 45.084 38.0796 45.0831L37.4676 51.0518C37.5752 51.0628 37.757 51.0793 37.9699 51.0793V45.0793ZM38.1377 45.0896L8.84224 41.5085L8.11422 47.4642L37.4096 51.0452L38.1377 45.0896Z" fill="#21022C" mask="url(#path-1-inside-1_16_96)"/></svg>

<svg width="50" height="50" fill="none" xmlns="http://www.w3.org/2000/svg"><mask id="a" fill="#fff"><path d="M5.41 44.14c1.357.326 2.621.348 3.068.346l29.296 3.581c.066.007.132.012.196.012 0 0 6.78.035 10.15-4.973 1.418-2.104 2.292-5.113 1.684-9.445-.548-3.9-4.171-9.472-10.575-10.15-2.889-.306-5.718.61-8.062 1.87-2.01 1.081-3.653 2.401-4.635 3.274-1.543-.751-4.225-1.902-6.183-1.902-2.28 0-4.15.418-5.606.94 0-.94-.031-1.693-.236-2.644-.475-2.215-1.272-7.053-1.658-9.44a10.36 10.36 0 0 0 1.384-.859c1.559-1.16 3.041-3.016 2.957-5.695-.109-3.476-2.676-7.134-7.18-7.134-2.37 0-3.882.792-4.867 1.677C3.51 5.063 3.268 6.91 3.268 6.91c-.004.027-.005.051-.01.078L.008 37.533a2.294 2.294 0 0 0-.008.216s.047 2.715 1.87 4.55c.946.954 2.268 1.534 3.54 1.84Z"/></mask><path d="M5.41 44.14c1.357.326 2.621.348 3.068.346l29.296 3.581c.066.007.132.012.196.012 0 0 6.78.035 10.15-4.973 1.418-2.104 2.292-5.113 1.684-9.445-.548-3.9-4.171-9.472-10.575-10.15-2.889-.306-5.718.61-8.062 1.87-2.01 1.081-3.653 2.401-4.635 3.274-1.543-.751-4.225-1.902-6.183-1.902-2.28 0-4.15.418-5.606.94 0-.94-.031-1.693-.236-2.644-.475-2.215-1.272-7.053-1.658-9.44a10.36 10.36 0 0 0 1.384-.859c1.559-1.16 3.041-3.016 2.957-5.695-.109-3.476-2.676-7.134-7.18-7.134-2.37 0-3.882.792-4.867 1.677C3.51 5.063 3.268 6.91 3.268 6.91c-.004.027-.005.051-.01.078L.008 37.533a2.294 2.294 0 0 0-.008.216s.047 2.715 1.87 4.55c.946.954 2.268 1.534 3.54 1.84Z" fill="#FDE5D2"/><path d="m8.478 44.486.364-2.977-.187-.023h-.188l.011 3ZM5.41 44.14l-.702 2.917.702-2.917ZM1.87 42.3l-2.13 2.114h.001L1.87 42.3ZM0 37.75h-3v.053l3-.053Zm.008-.216-2.983-.318-.001.017-.002.016 2.986.285ZM3.258 6.99.309 6.436l-.022.117-.013.119 2.984.317Zm.01-.078-2.975-.39-.001.01-.001.008 2.977.372Zm1.875-3.313L7.146 5.83l.002-.002-2.005-2.231ZM17.19 9.055l-2.999.094v.001l2.999-.095Zm-2.957 5.695 1.783 2.413.008-.006-1.79-2.407Zm-1.384.86-1.38-2.664-1.928.998.347 2.145 2.961-.48Zm1.659 9.44 2.933-.63-2.933.63Zm.235 2.643h-3a3 3 0 0 0 4.011 2.824l-1.011-2.824Zm11.79.962-1.314 2.698 1.806.88 1.501-1.336-1.994-2.242Zm4.634-3.274-1.42-2.643 1.42 2.643Zm8.062-1.87-.316 2.983.316-2.983Zm10.575 10.15 2.971-.416v-.001l-2.97.417Zm-1.684 9.445-2.487-1.677-.001.002 2.488 1.675Zm-10.15 4.973.015-3h-.015v3Zm-.196-.012-.364 2.978.029.004.029.003.306-2.985Zm-29.307-6.58a10.506 10.506 0 0 1-2.355-.264l-1.404 5.833c1.698.409 3.237.432 3.782.43l-.023-6Zm-2.355-.264c-.955-.23-1.694-.615-2.113-1.037L-.26 44.414c1.473 1.483 3.377 2.26 4.967 2.642l1.404-5.833ZM4 40.187c-.41-.413-.685-1.002-.847-1.616A5.202 5.202 0 0 1 3 37.683l-.001-.02a1.05 1.05 0 0 1 0 .02v.012c0 .001 0 .002-2.999.054-3 .053-3 .054-3 .055v.016a3.612 3.612 0 0 0 .003.077l.008.16a11.202 11.202 0 0 0 .34 2.045c.317 1.201.977 2.888 2.39 4.311l4.258-4.226Zm-1-2.439v-.003l-.005.071-5.973-.569c-.02.209-.022.39-.022.501h6Zm-.008.101L6.24 7.306.274 6.672l-3.249 30.543 5.967.635ZM6.206 7.542c.02-.11.032-.2.037-.244l.003-.026v-.008l.001-.003-.002.022L.29 6.54a4.363 4.363 0 0 0-.007.062l-.001.006v.003-.007c.003-.02.01-.084.026-.167l5.897 1.106Zm-2.938-.63c2.974.389 2.974.39 2.974.391v.006l-.002.008a1.834 1.834 0 0 1-.008.054s.003-.02.012-.055a3.046 3.046 0 0 1 .902-1.485L3.14 1.365A9.045 9.045 0 0 0 .418 5.884a6.98 6.98 0 0 0-.124.628v.007c0 .002 0 .003 2.974.392Zm3.88-1.083c.445-.4 1.247-.908 2.862-.908v-6c-3.124 0-5.347 1.075-6.872 2.445l4.01 4.463Zm2.862-.908c2.527 0 4.111 1.99 4.181 4.228l5.997-.187C20.041 4.249 16.492-1.079 10.01-1.079v6Zm4.181 4.23c.043 1.358-.66 2.382-1.748 3.192l3.58 4.814c2.03-1.508 4.292-4.197 4.165-8.196l-5.997.19Zm-1.74 3.186a7.358 7.358 0 0 1-.981.609l2.758 5.328c.548-.283 1.163-.65 1.788-1.11l-3.565-4.827Zm-2.563 3.752c.38 2.356 1.191 7.282 1.686 9.59l5.867-1.26c-.456-2.122-1.24-6.872-1.63-9.288l-5.923.958Zm1.686 9.59c.14.65.169 1.161.169 2.014h6c0-1.027-.034-2.022-.302-3.273l-5.867 1.259Zm4.18 4.838c1.16-.416 2.69-.764 4.595-.764v-6c-2.654 0-4.867.488-6.618 1.115l2.023 5.649Zm4.595-.764c.48 0 1.266.16 2.27.506.953.328 1.89.748 2.6 1.094l2.627-5.395a29.925 29.925 0 0 0-3.273-1.372c-1.212-.417-2.746-.833-4.224-.833v6Zm8.177 1.144c.878-.78 2.327-1.94 4.063-2.874l-2.843-5.284c-2.285 1.23-4.122 2.71-5.208 3.675l3.988 4.483Zm4.061-2.873c2.042-1.097 4.252-1.75 6.326-1.53l.633-5.966c-3.704-.393-7.152.789-9.798 2.21l2.84 5.286Zm6.326-1.53c4.707.5 7.514 4.691 7.92 7.585l5.942-.835c-.69-4.908-5.13-11.858-13.23-12.716l-.632 5.966Zm7.92 7.584c.52 3.705-.253 5.945-1.2 7.351l4.975 3.354c1.889-2.802 2.862-6.58 2.167-11.538l-5.942.833Zm-1.201 7.353c-1.149 1.705-2.947 2.65-4.691 3.16-.854.248-1.628.372-2.184.433a10.077 10.077 0 0 1-.788.055h.014c.001 0 .002 0-.013 3s-.014 3-.013 3h.053l.095-.001.3-.01c.249-.012.59-.034 1.002-.08.82-.089 1.952-.27 3.214-.638 2.488-.725 5.765-2.267 7.988-5.569l-4.977-3.35Zm-7.662 3.648c.046 0 .079.002.096.003l.014.001-.612 5.969c.107.01.289.027.502.027v-6Zm.168.01L8.842 41.51l-.728 5.955 29.296 3.581.728-5.955Z" fill="#21022C" mask="url(#a)"/></svg>
